public/assets/imgs/page/homepage5/monst.svg

<svg width="268" height="69" viewBox="0 0 268 69" fill="none" xmlns="http://www.w3.org/2000/svg">
<g clip-path="url(#clip0_2_481)">
<path d="M38.4368 14.7171L37.5905 12.4603C37.5905 12.4603 37.2379 11.4024 37.0263 11.1203C36.9558 10.9792 36.7442 10.7676 36.6032 10.5561C35.7568 9.70975 34.4874 9.28659 33.4295 9.63922C32.7242 9.8508 32.0895 10.1329 32.0895 10.1329L29.8326 11.1203C29.1274 11.4729 28.3516 11.6845 27.5758 11.8255C25.9537 12.1782 24.3316 12.1782 22.78 11.8255C22.0042 11.6845 21.2284 11.4024 20.5232 11.1203L18.4074 10.2034C18.4074 10.2034 17.2084 9.63922 16.7853 9.49817C15.7274 9.21606 14.5989 9.63922 13.7526 10.4855C13.6116 10.6266 13.4 10.9087 13.3295 11.1203C13.1179 11.4729 12.8358 12.4603 12.8358 12.4603L11.9895 14.7171C11.7074 15.4929 11.3547 16.1276 10.9316 16.8329C11.5663 16.6919 12.2716 16.7624 12.9768 17.115L16.2916 18.5961L19.1126 19.795L19.2537 19.8655L22.5684 21.2761C24.2611 21.9813 26.1653 21.9813 27.8579 21.2761L31.2432 19.795L31.3842 19.7245L34.2053 18.5255L37.52 17.0445C38.2958 16.6919 38.9305 16.6213 39.5653 16.7624C39.0716 16.1276 38.7189 15.4224 38.4368 14.7171Z" fill="#C3C9CB"/>
<path d="M44.9958 47.7235L47.2526 46.8772L48.5926 46.313C48.8042 46.1719 48.9453 46.0309 49.0863 45.8898C49.9326 45.0435 50.2853 43.8446 50.0032 42.7162L49.4389 41.4467L48.4516 39.1898C48.0989 38.4846 47.8874 37.7088 47.7463 36.933C47.3937 35.3109 47.3937 33.6888 47.7463 32.1372C47.8874 31.3614 48.1695 30.5856 48.4516 29.8804L49.3684 27.7646L50.0737 26.1425C50.2147 25.0846 49.9326 23.9562 49.0863 23.1098C48.9453 22.9688 48.8042 22.8277 48.6632 22.7572L47.1116 22.1225L44.9958 21.2762C44.22 20.9941 43.5853 20.6414 42.88 20.2183C43.0211 20.853 42.9505 21.5583 42.5979 22.2635L41.1168 25.5783L39.9179 28.3993L39.8474 28.5404L38.3663 31.9256C37.6611 33.6183 37.6611 35.5225 38.3663 37.2151L39.8474 40.6004L39.9179 40.7414L41.1168 43.5625L42.5979 46.8772C42.9505 47.653 43.0211 48.2877 42.88 48.9225C43.5853 48.4288 44.2905 48.0762 44.9958 47.7235Z" fill="#C3C9CB"/>
<path d="M11.9189 54.3533L12.7653 56.6101C12.7653 56.6101 13.1179 57.668 13.3295 57.9501C13.4 58.0912 13.6116 58.3028 13.7526 58.5143C14.5989 59.3606 15.8684 59.7838 16.9263 59.4312C17.6316 59.2196 18.2663 58.9375 18.2663 58.9375L20.5232 57.9501C21.2284 57.5975 22.0042 57.3859 22.78 57.2449C24.4021 56.8922 26.0242 56.8922 27.5758 57.2449C28.3516 57.3859 29.1274 57.668 29.8326 57.9501L31.9484 58.867C31.9484 58.867 33.1474 59.4312 33.5705 59.5722C34.6284 59.8543 35.7568 59.4312 36.6032 58.5849C36.7442 58.4438 36.9558 58.1617 37.0263 57.9501C37.2379 57.5975 37.52 56.6101 37.52 56.6101L38.3663 54.4238C38.6484 53.648 39.0011 53.0133 39.4242 52.308C38.7895 52.4491 38.0842 52.3785 37.3789 52.0259L34.0642 50.5449L31.2432 49.3459L31.1021 49.2754L27.7168 47.7943C26.0242 47.0891 24.12 47.0891 22.4274 47.7943L19.0421 49.2754L16.2211 50.4743L12.9063 51.9554C12.1305 52.308 11.4958 52.3785 10.8611 52.2375C11.2842 52.8722 11.6368 53.5775 11.9189 54.3533Z" fill="#C3C9CB"/>
<path d="M5.36 21.2762L3.10316 22.1225L1.76316 22.6867C1.55158 22.8277 1.41052 22.9688 1.26947 23.1098C0.423156 23.9562 0.070524 25.1551 0.352629 26.2835L0.91684 27.553L1.90421 29.8098C2.25684 30.5151 2.46842 31.2909 2.60947 32.0667C2.9621 33.6888 2.9621 35.3109 2.60947 36.8625C2.46842 37.6383 2.18631 38.4141 1.90421 39.1193L0.987366 41.2351L0.282103 42.8572C0.14105 43.9151 0.423156 45.0435 1.26947 45.8898C1.41052 46.0309 1.55158 46.1719 1.69263 46.2425L3.24421 46.8772L5.43052 47.7235C6.20631 48.0056 6.84105 48.3583 7.54631 48.7814C7.40526 48.1467 7.47579 47.4414 7.82842 46.7362L9.30947 43.4214L10.5084 40.6004L10.5789 40.4593L12.06 37.0741C12.7653 35.3814 12.7653 33.4772 12.06 31.7846L10.5789 28.3993L10.5084 28.2583L9.30947 25.4372L7.75789 22.2635C7.40526 21.4877 7.33473 20.853 7.47579 20.2183C6.84105 20.5709 6.13579 20.9941 5.36 21.2762Z" fill="#C3C9CB"/>
<path d="M20.5232 10.909L18.3368 9.9216C18.3368 9.9216 17.3495 9.42792 16.9968 9.35739C16.7853 9.28687 16.5032 9.28687 16.2916 9.28687C15.0221 9.28687 13.8937 9.9216 13.4 10.909C13.0474 11.5437 12.8358 12.1784 12.8358 12.1784L11.9189 14.4353C11.6368 15.2111 11.2842 15.9163 10.8611 16.5511C9.94421 17.9616 8.81579 19.09 7.40526 20.0069C6.77053 20.43 6.06526 20.7827 5.28947 21.1353L3.17368 21.9816C3.17368 21.9816 1.90421 22.4048 1.55158 22.6163C0.493684 23.1805 0 24.309 0 25.5079C0 25.7195 0.0705263 26.0721 0.141053 26.2837C0.211579 26.6363 0.705263 27.6237 0.705263 27.6237L1.69263 29.81C1.97474 30.3742 2.18632 31.009 2.32737 31.6437C2.39789 31.7848 2.60947 31.8553 2.68 31.7142C3.03263 31.3616 3.45579 31.009 4.09053 30.7974L7.47579 29.4574L10.3674 28.329L10.5084 28.2584L13.9642 26.9184C15.6568 26.2132 17.0674 24.8732 17.7021 23.1805L19.0421 19.7248L19.1126 19.5837L20.2411 16.6921L21.5811 13.3069C21.7926 12.7427 22.1453 12.249 22.4979 11.8963C22.6389 11.7553 22.5684 11.5437 22.4274 11.5437C21.7221 11.4027 21.1579 11.1911 20.5232 10.909Z" fill="#DDE1E2"/>
<path d="M48.8042 29.81L49.7916 27.5532L50.3558 26.2132C50.4263 26.0016 50.4263 25.79 50.4263 25.5079C50.4263 24.2384 49.7916 23.1805 48.8042 22.5458L47.4642 22.0521L45.2074 21.1353C44.4316 20.8532 43.7263 20.5005 43.0916 20.0774C41.681 19.1605 40.5526 18.0321 39.6358 16.6216C39.2126 15.9869 38.86 15.2816 38.5074 14.5058L37.661 12.39L37.0263 10.7679V10.6974C36.3916 9.85108 35.3337 9.28687 34.2053 9.28687C33.9937 9.28687 33.7821 9.28687 33.641 9.35739L32.0895 9.99213L29.9032 10.9795C29.3389 11.2616 28.7042 11.4732 28.0695 11.6142C27.9284 11.6848 27.8579 11.8963 27.9989 11.9669C28.3516 12.3195 28.7042 12.7427 28.9158 13.3774L30.2558 16.7627L31.3842 19.6542L31.4547 19.7953L32.7947 23.2511C33.5 24.9437 34.84 26.3542 36.5326 26.989L39.9884 28.329L40.1295 28.3995L43.021 29.5279L46.4063 30.8679C46.9705 31.0795 47.4642 31.4321 47.8168 31.7848C47.9579 31.9258 48.1695 31.8553 48.1695 31.7142C48.3105 31.009 48.5221 30.4448 48.8042 29.81Z" fill="#DDE1E2"/>
<path d="M29.9032 58.0912L32.16 59.0785C32.16 59.0785 33.1474 59.5722 33.5 59.6427C33.641 59.7133 33.9937 59.7133 34.2053 59.7133C35.4747 59.7133 36.6032 59.0785 37.0968 58.0912C37.4495 57.4564 37.661 56.8217 37.661 56.8217L38.5779 54.5648C38.86 53.7891 39.2126 53.0838 39.6358 52.4491C40.5526 51.0385 41.681 49.9101 43.0916 48.9933C43.7263 48.5701 44.4316 48.2175 45.2074 47.8648L47.3232 47.0185C47.3232 47.0185 48.5926 46.5954 48.9453 46.3838C49.9326 45.8901 50.4263 44.6912 50.4263 43.5627C50.4263 43.3512 50.3558 42.9985 50.2853 42.787C50.1442 42.3638 49.6505 41.447 49.6505 41.447L48.6632 39.2606C48.381 38.6964 48.1695 38.0617 48.0284 37.427C47.9579 37.2859 47.7463 37.2154 47.6758 37.3564C47.3232 37.7091 46.9 38.0617 46.2653 38.2733L42.88 39.6133L39.9884 40.7417L39.8474 40.8122L36.3916 42.1522C34.6989 42.8575 33.2884 44.1975 32.6537 45.8901L31.3137 49.3459L31.2432 49.487L30.2558 52.308L28.9158 55.6933C28.7042 56.2575 28.3516 56.7512 27.9989 57.1038C27.8579 57.2449 27.9284 57.4564 28.0695 57.4564C28.7042 57.5975 29.3389 57.8091 29.9032 58.0912Z" fill="#DDE1E2"/>
<path d="M1.62211 39.1901L0.634737 41.4469L0.0705263 42.7869C0 42.9985 0 43.2101 0 43.4922C0 44.7617 0.634737 45.8196 1.62211 46.4543L2.96211 46.948L5.21895 47.8648C5.99474 48.1469 6.7 48.4996 7.33474 48.9227C8.74526 49.8396 9.87368 50.968 10.7905 52.3785C11.2137 53.0132 11.5663 53.7185 11.9189 54.4943L12.7653 56.6101L13.4 58.2322V58.3027C14.0347 59.149 15.0926 59.7132 16.2211 59.7132C16.4326 59.7132 16.6442 59.7132 16.7853 59.6427L18.3368 59.008L20.5232 58.0206C21.0874 57.7385 21.7221 57.5269 22.3568 57.3859C22.4979 57.3153 22.5684 57.1038 22.4274 57.0332C22.0747 56.6806 21.7221 56.2574 21.5105 55.6227L20.1705 52.2374L19.0421 49.3459L18.9716 49.2048L17.6316 45.8196C16.9263 44.1269 15.5863 42.7164 13.8937 42.0817L10.4379 40.7417L10.2968 40.6711L7.40526 39.5427L4.02 38.2027C3.45579 37.9911 2.96211 37.6385 2.60947 37.2859C2.46842 37.1448 2.25684 37.2153 2.25684 37.3564C2.11579 37.9911 1.90421 38.6259 1.62211 39.1901Z" fill="#DDE1E2"/>
</g>
<path d="M77.1236 21.1935C77.1236 23.2765 78.413 28.3352 80.992 36.3695L82.579 41.329L82.9262 41.2298C82.9592 40.5355 85.0091 33.7245 89.0759 20.7968C89.0759 20.4661 88.8941 20.152 88.5304 19.8545C88.1667 19.5238 87.7864 19.3089 87.3897 19.2097L87.5385 18.5154C89.1916 18.6477 91.4565 18.7138 94.333 18.7138C97.2095 18.7138 99.5074 18.5815 101.227 18.317L101.475 19.5569C99.8876 20.0528 98.284 20.4 96.6639 20.5984C96.4986 21.3919 96.4159 22.8136 96.4159 24.8635C96.4159 26.8804 96.6804 30.9472 97.2095 37.0639C97.7715 43.1806 98.284 47.2473 98.7469 49.2642C100.499 49.4295 102.318 49.7436 104.202 50.2065L104.054 51.3968C101.607 51.1323 98.9618 51 96.1184 51C93.2749 51 90.977 51.1323 89.2247 51.3968L89.0263 50.1569C90.5142 49.694 92.1012 49.3468 93.7874 49.1154C93.7874 45.9744 93.6056 41.6431 93.2419 36.1216C92.8782 30.6 92.4153 25.872 91.8532 21.9374L91.7044 21.8879C86.9764 34.9809 84.4967 42.9491 84.2652 45.7925C82.1161 47.082 80.5125 48.3384 79.4545 49.5618L78.8594 49.165C78.9255 48.4376 78.9586 47.8921 78.9586 47.5284C78.9586 43.66 76.7929 35.1131 72.4616 21.8879L72.2633 21.9374L70.7258 32.7987C70.0646 37.5267 69.7339 41.7919 69.7339 45.5942C69.7339 46.8175 69.8662 47.8259 70.1307 48.6194C70.4283 49.413 71.0069 50.0412 71.8665 50.5041L71.6681 51.1984C70.6432 51.0661 68.8908 51 66.4111 51C63.9644 51 61.7657 51.1323 59.815 51.3968L59.6166 50.1569C61.1044 49.694 62.6915 49.3468 64.3777 49.1154L69.9323 21.4415C66.0309 21.4415 63.5346 21.9705 62.4435 23.0285C62.2121 23.4914 62.0963 24.2188 62.0963 25.2107C62.0963 26.2026 62.2617 26.8804 62.5923 27.2441L62.5427 27.5913C61.7161 28.0872 60.8895 28.7815 60.0629 29.6742C59.6662 29.6412 59.3521 29.4759 59.1206 29.1783C58.8561 28.8807 58.7239 28.5336 58.7239 28.1368C58.7239 26.5167 59.6993 24.5825 61.65 22.3342C63.6007 20.0859 65.4192 18.6642 67.1054 18.069C67.3699 18.069 68.5602 18.1848 70.6762 18.4162C72.7923 18.6146 74.4289 18.7138 75.5861 18.7138C76.7764 18.7138 77.9005 18.6146 78.9586 18.4162L79.1569 19.6561C77.8014 20.1851 77.1236 20.6976 77.1236 21.1935ZM116.88 51.5951C113.607 51.5951 110.962 50.5702 108.945 48.5203C106.928 46.4373 105.92 43.66 105.92 40.1883C105.92 36.7167 106.978 33.46 109.094 30.4182C111.21 27.3763 113.971 25.4256 117.376 24.566C120.782 24.566 123.377 25.5413 125.163 27.4921C126.948 29.4097 127.841 32.154 127.841 35.7248C127.841 39.2956 126.865 42.5193 124.915 45.3958C122.997 48.2723 120.319 50.3387 116.88 51.5951ZM116.037 27.5913C114.549 27.5913 113.26 28.0045 112.169 28.8311C110.813 31.1455 110.135 34.0551 110.135 37.5598C110.135 41.5935 111.26 44.6849 113.508 46.834C114.698 47.9912 116.103 48.5699 117.723 48.5699C119.344 48.5699 120.65 48.14 121.641 47.2804C122.964 44.966 123.625 42.1391 123.625 38.7997C123.625 35.4603 123.03 32.7656 121.84 30.7157C120.65 28.6327 118.715 27.5913 116.037 27.5913ZM143.996 51.3472C142.277 51.1157 140.342 51 138.193 51C136.077 51 134.176 51.1323 132.49 51.3968L132.292 50.1073C133.35 49.7767 134.342 49.5287 135.267 49.3634C135.565 46.7844 135.714 43.412 135.714 39.246V36.9151C135.714 32.4846 135.548 29.0791 135.218 26.6985C134.325 26.5994 133.25 26.3348 131.994 25.905L132.143 24.6156C134.027 24.9793 135.995 25.1611 138.045 25.1611C140.128 25.1611 141.615 25.0454 142.508 24.8139L142.607 25.6571C141.715 25.8885 141.268 26.2687 141.268 26.7977C141.268 27.1945 141.648 28.0376 142.409 29.3271C143.202 30.5835 143.963 31.8068 144.69 32.9971C146.872 36.4687 149.451 40.7339 152.427 45.7925L152.576 45.6934V39.6428C152.576 35.2123 152.344 31.8895 151.882 29.6742C151.419 27.4259 150.625 26.1199 149.501 25.7562L149.6 24.9131C150.46 25.0784 151.749 25.1611 153.469 25.1611C155.188 25.1611 156.957 24.9793 158.775 24.6156L158.924 25.905C157.568 26.3348 156.428 26.5994 155.502 26.6985C155.171 29.3436 155.006 32.7491 155.006 36.9151V39.246C155.006 44.2716 155.171 47.6771 155.502 49.4626C156.891 49.694 157.998 49.9585 158.825 50.2561L158.676 51.5455C157.023 51.1818 155.469 51 154.014 51C152.559 51 151.435 51.0661 150.642 51.1984C150.642 50.471 150.129 49.2477 149.104 47.5284C148.112 45.8091 147.203 44.2882 146.377 42.9656C143.698 38.6344 141.07 34.237 138.491 29.7734L138.293 29.8726V36.5183C138.293 43.0979 138.789 47.3796 139.78 49.3634C141.268 49.5287 142.723 49.7767 144.145 50.1073L143.996 51.3472ZM166.285 47.2308C167.806 47.859 169.31 48.1731 170.798 48.1731C172.286 48.1731 173.476 47.8259 174.369 47.1316C175.262 46.4373 175.708 45.4454 175.708 44.1559C175.708 42.8334 173.84 41.1968 170.104 39.246C168.682 38.5186 167.376 37.6425 166.186 36.6175C165.029 35.5595 164.45 34.518 164.45 33.493C164.45 31.7407 165.376 29.9718 167.227 28.1864C169.079 26.401 170.98 25.1942 172.931 24.566C175.377 24.566 177.593 24.8139 179.576 25.3099V26.2026C178.188 27.5913 177.411 29.4924 177.245 31.906H176.006C176.006 30.9802 175.923 29.823 175.758 28.4344C174.6 27.9054 173.36 27.6408 172.038 27.6408C170.715 27.6408 169.608 27.9384 168.715 28.5336C167.855 29.0956 167.426 29.9222 167.426 31.0133C167.426 31.7737 168.004 32.6003 169.161 33.493C170.352 34.3857 171.641 35.1793 173.03 35.8736C174.418 36.5679 175.691 37.4276 176.849 38.4525C178.039 39.4775 178.634 40.5024 178.634 41.5274C178.634 43.5112 177.758 45.495 176.006 47.4788C174.253 49.4295 172.319 50.8016 170.203 51.5951C168.12 51.5951 166.169 51.3472 164.351 50.8512C163.822 51.0827 163.276 51.4629 162.714 51.9919L161.821 51.3472C163.673 49.3303 164.698 46.834 164.896 43.8583H166.136C166.136 45.0156 166.186 46.1397 166.285 47.2308ZM199.973 27.8392C198.816 27.2772 197.709 26.9961 196.651 26.9961C195.593 26.9961 194.882 27.0622 194.518 27.1945C194.253 28.9799 194.121 32.435 194.121 37.5598C194.121 42.6846 194.303 46.6191 194.667 49.3634C196.155 49.5287 197.527 49.7767 198.783 50.1073L198.634 51.3472C196.915 51.1157 194.931 51 192.683 51C190.468 51 188.517 51.1323 186.831 51.3968L186.632 50.1073C187.294 49.9089 188.434 49.6609 190.054 49.3634C190.352 46.9828 190.501 43.6104 190.501 39.246V36.9151C190.501 34.6007 190.319 31.3605 189.955 27.1945C189.592 27.0622 188.914 26.9961 187.922 26.9961C186.93 26.9961 185.872 27.2276 184.748 27.6904C184.417 28.7154 184.186 30.0875 184.053 31.8068H182.764C182.764 29.0956 182.318 26.9961 181.425 25.5083L181.673 24.6652C184.219 24.9958 187.79 25.1611 192.385 25.1611C196.981 25.1611 200.684 24.9793 203.495 24.6156L203.792 25.5579C202.966 26.4836 202.404 27.3929 202.106 28.2856C201.808 29.1452 201.627 30.319 201.56 31.8068H200.321C200.089 30.7157 199.973 29.3932 199.973 27.8392Z" fill="#C3C9CB"/>
<defs>
<clipPath id="clip0_2_481">
<rect width="50.4263" height="50.4263" fill="white" transform="translate(0 9.28687)"/>
</clipPath>
</defs>
</svg>

<svg width="268" height="69" fill="none" xmlns="http://www.w3.org/2000/svg"><g clip-path="url(#a)"><path d="m38.437 14.717-.846-2.257s-.353-1.058-.565-1.34c-.07-.14-.282-.352-.423-.564-.846-.846-2.116-1.27-3.174-.917-.705.212-1.34.494-1.34.494l-2.256.987c-.706.353-1.481.565-2.257.706a11 11 0 0 1-4.796 0c-.776-.142-1.552-.424-2.257-.706l-2.116-.917s-1.199-.564-1.622-.705c-1.058-.282-2.186.141-3.032.988-.141.14-.353.423-.424.634-.211.353-.493 1.34-.493 1.34l-.847 2.257c-.282.776-.634 1.41-1.057 2.116.634-.141 1.34-.07 2.045.282l3.315 1.481 2.82 1.199.142.07 3.314 1.411a6.877 6.877 0 0 0 5.29 0l3.385-1.481.141-.07 2.821-1.2 3.315-1.48c.776-.353 1.41-.424 2.045-.283-.493-.634-.846-1.34-1.128-2.045ZM44.996 47.724l2.257-.847 1.34-.564c.211-.141.352-.282.493-.423.847-.846 1.2-2.045.917-3.174l-.564-1.27-.987-2.256c-.353-.705-.565-1.481-.706-2.257a11.002 11.002 0 0 1 0-4.796c.141-.776.423-1.551.706-2.257l.916-2.115.706-1.623c.14-1.057-.141-2.186-.988-3.032-.14-.141-.282-.282-.423-.353l-1.551-.635-2.116-.846c-.776-.282-1.41-.635-2.116-1.058.141.635.07 1.34-.282 2.046l-1.481 3.314-1.2 2.821-.07.141-1.48 3.386a6.877 6.877 0 0 0 0 5.29l1.48 3.384.07.141 1.2 2.822 1.48 3.314c.353.776.424 1.41.283 2.045.705-.493 1.41-.846 2.116-1.198ZM11.919 54.353l.846 2.257s.353 1.058.564 1.34c.071.141.283.353.424.564.846.847 2.115 1.27 3.173.917.706-.211 1.34-.493 1.34-.493l2.257-.988c.705-.353 1.481-.564 2.257-.705a11 11 0 0 1 4.796 0c.776.14 1.551.423 2.257.705l2.115.917s1.2.564 1.623.705c1.057.282 2.186-.14 3.032-.987.141-.141.353-.423.423-.635.212-.353.494-1.34.494-1.34l.846-2.186c.282-.776.635-1.41 1.058-2.116-.635.141-1.34.07-2.045-.282l-3.315-1.481-2.82-1.2-.142-.07-3.385-1.48a6.877 6.877 0 0 0-5.29 0l-3.385 1.48-2.82 1.2-3.316 1.48c-.776.353-1.41.424-2.045.282a9.89 9.89 0 0 1 1.058 2.116ZM5.36 21.276l-2.257.846-1.34.565c-.211.14-.352.282-.494.423-.846.846-1.198 2.045-.916 3.174l.564 1.269.987 2.257c.353.705.564 1.48.705 2.257a11.001 11.001 0 0 1 0 4.795c-.14.776-.423 1.552-.705 2.257l-.917 2.116-.705 1.622c-.14 1.058.141 2.187.987 3.033.142.14.283.282.424.352l1.551.635 2.187.846c.775.283 1.41.635 2.115 1.058-.14-.634-.07-1.34.282-2.045l1.481-3.315 1.2-2.82.07-.142 1.481-3.385a6.876 6.876 0 0 0 0-5.29L10.579 28.4l-.07-.14-1.2-2.822-1.551-3.174c-.353-.775-.423-1.41-.282-2.045-.635.353-1.34.776-2.116 1.058Z" fill="#C3C9CB"/><path d="m20.523 10.909-2.186-.987s-.988-.494-1.34-.565c-.212-.07-.494-.07-.705-.07-1.27 0-2.398.635-2.892 1.622-.353.635-.564 1.27-.564 1.27l-.917 2.256a9.891 9.891 0 0 1-1.058 2.116 11.536 11.536 0 0 1-3.456 3.456c-.634.423-1.34.776-2.116 1.128l-2.115.847s-1.27.423-1.622.634C.494 23.18 0 24.31 0 25.508a3 3 0 0 0 .141.776c.07.352.564 1.34.564 1.34l.988 2.186c.282.564.493 1.199.634 1.834.07.14.282.211.353.07.353-.352.776-.705 1.41-.917l3.386-1.34 2.891-1.128.141-.07 3.456-1.34c1.693-.706 3.103-2.046 3.738-3.739l1.34-3.455.07-.141 1.13-2.892 1.34-3.385a4.075 4.075 0 0 1 .916-1.41c.14-.142.07-.353-.07-.353-.706-.141-1.27-.353-1.905-.635ZM48.804 29.81l.988-2.257.564-1.34c.07-.211.07-.423.07-.705 0-1.27-.634-2.328-1.622-2.962l-1.34-.494-2.257-.917a9.89 9.89 0 0 1-2.115-1.058 11.534 11.534 0 0 1-3.456-3.455c-.423-.635-.776-1.34-1.129-2.116l-.846-2.116-.635-1.622v-.07a3.574 3.574 0 0 0-2.82-1.411c-.212 0-.424 0-.565.07l-1.551.635-2.187.987a8.056 8.056 0 0 1-1.833.635c-.142.07-.212.282-.071.353.353.352.705.776.917 1.41l1.34 3.386 1.128 2.891.07.141 1.34 3.456c.706 1.693 2.046 3.103 3.739 3.738l3.455 1.34.142.07 2.891 1.129 3.385 1.34a4.074 4.074 0 0 1 1.41.917c.142.14.353.07.353-.07.142-.706.353-1.27.635-1.905ZM29.903 58.091l2.257.987s.987.494 1.34.565c.141.07.494.07.705.07 1.27 0 2.398-.635 2.892-1.622.352-.635.564-1.27.564-1.27l.917-2.256a9.886 9.886 0 0 1 1.058-2.116 11.532 11.532 0 0 1 3.456-3.456c.634-.423 1.34-.776 2.115-1.128l2.116-.846s1.27-.424 1.622-.635c.988-.494 1.481-1.693 1.481-2.821a3 3 0 0 0-.14-.776c-.142-.423-.636-1.34-.636-1.34l-.987-2.186a8.053 8.053 0 0 1-.635-1.834c-.07-.141-.282-.212-.352-.07-.353.352-.776.705-1.41.916l-3.386 1.34-2.892 1.129-.14.07-3.456 1.34c-1.693.706-3.104 2.045-3.738 3.738l-1.34 3.456-.07.141-.988 2.821-1.34 3.385a4.074 4.074 0 0 1-.917 1.41c-.141.142-.07.353.07.353a8.06 8.06 0 0 1 1.834.635ZM1.622 39.19l-.987 2.257-.564 1.34C0 42.999 0 43.21 0 43.492c0 1.27.635 2.328 1.622 2.962l1.34.494 2.257.917a9.89 9.89 0 0 1 2.116 1.058 11.535 11.535 0 0 1 3.455 3.456c.424.634.776 1.34 1.129 2.115l.846 2.116.635 1.622v.07a3.574 3.574 0 0 0 2.821 1.411c.212 0 .423 0 .564-.07l1.552-.635 2.186-.987a8.053 8.053 0 0 1 1.834-.635c.14-.07.211-.282.07-.353-.352-.352-.705-.776-.916-1.41l-1.34-3.386-1.129-2.891-.07-.141-1.34-3.385c-.706-1.693-2.046-3.104-3.738-3.738l-3.456-1.34-.141-.07-2.892-1.13-3.385-1.34a4.076 4.076 0 0 1-1.41-.916c-.142-.141-.353-.07-.353.07a8.056 8.056 0 0 1-.635 1.834Z" fill="#DDE1E2"/></g><path d="M77.124 21.194c0 2.082 1.289 7.141 3.868 15.176l1.587 4.959.347-.1c.033-.694 2.083-7.505 6.15-20.432 0-.33-.182-.645-.546-.942-.363-.331-.744-.546-1.14-.645l.148-.695c1.654.133 3.919.199 6.795.199 2.877 0 5.174-.133 6.894-.397l.248 1.24a27.189 27.189 0 0 1-4.811 1.041c-.165.794-.248 2.216-.248 4.265 0 2.017.264 6.084.794 12.2.562 6.118 1.074 10.184 1.537 12.201a37.75 37.75 0 0 1 5.455.942l-.148 1.19c-2.447-.264-5.092-.396-7.936-.396-2.843 0-5.141.132-6.893.397l-.199-1.24a29.521 29.521 0 0 1 4.761-1.042c0-3.14-.181-7.472-.545-12.993-.364-5.522-.827-10.25-1.389-14.185l-.149-.05c-4.728 13.094-7.207 21.062-7.439 23.905-2.149 1.29-3.752 2.546-4.81 3.77l-.596-.397c.067-.727.1-1.273.1-1.637 0-3.868-2.166-12.415-6.497-25.64l-.199.05-1.537 10.86c-.661 4.729-.992 8.994-.992 12.796 0 1.224.132 2.232.397 3.025.297.794.876 1.422 1.736 1.885l-.199.694c-1.025-.132-2.777-.198-5.257-.198-2.447 0-4.645.132-6.596.397l-.198-1.24a29.519 29.519 0 0 1 4.76-1.042l5.555-27.674c-3.901 0-6.397.53-7.489 1.588-.23.462-.347 1.19-.347 2.182s.166 1.67.496 2.033l-.05.347c-.826.496-1.653 1.19-2.48 2.083a1.273 1.273 0 0 1-.941-.496 1.519 1.519 0 0 1-.397-1.041c0-1.62.975-3.555 2.926-5.803 1.95-2.248 3.77-3.67 5.455-4.265.265 0 1.455.116 3.571.347 2.116.199 3.753.298 4.91.298 1.19 0 2.314-.1 3.373-.298l.198 1.24c-1.356.53-2.033 1.042-2.033 1.538Zm39.756 30.401c-3.273 0-5.918-1.025-7.935-3.075-2.017-2.083-3.025-4.86-3.025-8.332 0-3.471 1.058-6.728 3.174-9.77 2.116-3.042 4.877-4.992 8.282-5.852 3.406 0 6.001.975 7.787 2.926 1.785 1.918 2.678 4.662 2.678 8.233 0 3.57-.976 6.794-2.926 9.67-1.918 2.877-4.596 4.944-8.035 6.2Zm-.843-24.004c-1.488 0-2.777.413-3.868 1.24-1.356 2.314-2.034 5.224-2.034 8.729 0 4.033 1.125 7.125 3.373 9.274 1.19 1.157 2.595 1.736 4.215 1.736 1.621 0 2.927-.43 3.918-1.29 1.323-2.314 1.984-5.14 1.984-8.48 0-3.34-.595-6.034-1.785-8.084-1.19-2.083-3.125-3.125-5.803-3.125Zm27.959 23.756c-1.719-.231-3.654-.347-5.803-.347-2.116 0-4.017.132-5.703.397l-.198-1.29c1.058-.33 2.05-.578 2.975-.744.298-2.579.447-5.951.447-10.117v-2.33c0-4.431-.166-7.837-.496-10.217-.893-.1-1.968-.364-3.224-.794l.149-1.29c1.884.364 3.852.546 5.902.546 2.083 0 3.57-.116 4.463-.347l.099.843c-.892.232-1.339.612-1.339 1.14 0 .398.38 1.24 1.141 2.53.793 1.256 1.554 2.48 2.281 3.67 2.182 3.472 4.761 7.737 7.737 12.795l.149-.099v-6.05c0-4.43-.232-7.753-.694-9.969-.463-2.248-1.257-3.554-2.381-3.918l.099-.843c.86.165 2.149.248 3.869.248 1.719 0 3.488-.182 5.306-.545l.149 1.289c-1.356.43-2.496.694-3.422.793-.331 2.646-.496 6.051-.496 10.217v2.331c0 5.026.165 8.431.496 10.217 1.389.231 2.496.495 3.323.793l-.149 1.29c-1.653-.364-3.207-.546-4.662-.546s-2.579.066-3.372.198c0-.727-.513-1.95-1.538-3.67-.992-1.719-1.901-3.24-2.727-4.562a512.105 512.105 0 0 1-7.886-13.193l-.198.1v6.645c0 6.58.496 10.862 1.487 12.845 1.488.166 2.943.414 4.365.744l-.149 1.24Zm22.289-4.116c1.521.628 3.025.942 4.513.942s2.678-.347 3.571-1.041c.893-.695 1.339-1.687 1.339-2.976 0-1.323-1.868-2.96-5.604-4.91a19.784 19.784 0 0 1-3.918-2.629c-1.157-1.057-1.736-2.099-1.736-3.124 0-1.752.926-3.521 2.777-5.307 1.852-1.785 3.753-2.992 5.704-3.62 2.446 0 4.662.248 6.645.744v.893c-1.388 1.388-2.165 3.29-2.331 5.703h-1.239c0-.926-.083-2.083-.248-3.472a8.846 8.846 0 0 0-3.72-.793c-1.323 0-2.43.297-3.323.893-.86.562-1.289 1.388-1.289 2.48 0 .76.578 1.586 1.735 2.479a25.27 25.27 0 0 0 3.869 2.38 17.653 17.653 0 0 1 3.819 2.58c1.19 1.024 1.785 2.05 1.785 3.074 0 1.984-.876 3.968-2.628 5.952-1.753 1.95-3.687 3.323-5.803 4.116-2.083 0-4.034-.248-5.852-.744-.529.232-1.075.612-1.637 1.14l-.893-.644c1.852-2.017 2.877-4.513 3.075-7.489h1.24c0 1.158.05 2.282.149 3.373Zm33.688-19.392c-1.157-.562-2.264-.843-3.322-.843-1.058 0-1.769.066-2.133.199-.265 1.785-.397 5.24-.397 10.365s.182 9.06.546 11.803c1.488.166 2.86.414 4.116.744l-.149 1.24c-1.719-.231-3.703-.347-5.951-.347-2.215 0-4.166.132-5.852.397l-.199-1.29c.662-.198 1.802-.446 3.422-.744.298-2.38.447-5.753.447-10.117v-2.33c0-2.315-.182-5.555-.546-9.721-.363-.133-1.041-.199-2.033-.199s-2.05.232-3.174.694c-.331 1.025-.562 2.397-.695 4.117h-1.289c0-2.711-.446-4.81-1.339-6.299l.248-.843c2.546.33 6.117.496 10.712.496 4.596 0 8.299-.182 11.11-.545l.297.942c-.826.926-1.388 1.835-1.686 2.728-.298.86-.479 2.033-.546 3.52h-1.239c-.232-1.09-.348-2.413-.348-3.967Z" fill="#C3C9CB"/><defs><clipPath id="a"><path fill="#fff" transform="translate(0 9.287)" d="M0 0h50.426v50.426H0z"/></clipPath></defs></svg>
